X: 1
T: Damned If I Know
M: 12/8
L: 1/8
R: slide
K: Dmaj
|: A | 
F^EF GFG AFd A2 d | cAe cAe d/e/fe dAG |
F^EF GFG AFd A2 d | cAe cAe dfe d2 :|
|: d/e/ |
f^ef gfg fdA FAd | cAe c2 e dfe dAd |
[1 f^ef gfg fdA F2 d | cAe c2 e d/e/fe d2 :|
[2 F^EF GFG A^GA B2 g | fdA ecA d/e/fe d2 ||
